Newaita-dark/apps/64/openra-d2k.svg

<svg height="64pt" viewBox="0 0 64 64" width="64pt" xmlns="http://www.w3.org/2000/svg" xmlns:xlink="http://www.w3.org/1999/xlink"><linearGradient id="a"><stop offset="0" stop-opacity=".313725"/><stop offset=".222222" stop-opacity=".27451"/><stop offset="1" stop-opacity="0"/></linearGradient><radialGradient id="b" cx="450.90894" cy="189.57936" gradientTransform="matrix(.00000035 -.156265 -.281277 -.0000002 89.046304 127.190664)" gradientUnits="userSpaceOnUse" r="21.166656" xlink:href="#a"/><radialGradient id="c" cx="450.90894" cy="189.57936" gradientTransform="matrix(-.00000035 .156265 .281277 .0000002 -25.540241 -15.054962)" gradientUnits="userSpaceOnUse" r="21.166656" xlink:href="#a"/><radialGradient id="d" cx="450.90894" cy="189.57936" gradientTransform="matrix(-.00000035 -.156265 .281277 -.0000002 -25.540241 127.190664)" gradientUnits="userSpaceOnUse" r="21.166656" xlink:href="#a"/><radialGradient id="e" cx="450.90894" cy="189.57936" gradientTransform="matrix(.00000035 .156265 -.281277 .0000002 89.0463 -15.054964)" gradientUnits="userSpaceOnUse" r="21.166656" xlink:href="#a"/><linearGradient id="f" gradientTransform="matrix(.0267201 0 0 .125012 24.930772 26.877567)" gradientUnits="userSpaceOnUse" x1="255.32306" x2="255.32304" y1="233.5" y2="254.66666"><stop offset="0" stop-opacity=".27451"/><stop offset="1" stop-opacity="0"/></linearGradient><linearGradient id="g" gradientUnits="userSpaceOnUse" x1="13.230451" x2="13.230451" y1="22.99181824996" y2="9.761382"><stop offset="0" stop-color="#ff7043"/><stop offset="1" stop-color="#ffab91"/></linearGradient><linearGradient id="h" gradientUnits="userSpaceOnUse" x1="31.753047" x2="31.753047" y1="56.067868" y2="5.79220824996"><stop offset="0" stop-color="#8d6e63"/><stop offset="1" stop-color="#a1887f"/></linearGradient><linearGradient id="i" gradientUnits="userSpaceOnUse" x1="42.337397" x2="42.337397" y1="48.12963524996" y2="34.899199"><stop offset="0" stop-color="#78909c"/><stop offset="1" stop-color="#b0bec5"/></linearGradient><path d="m36.382812 56.066406h5.292969v-2.644531h-5.292969zm0 0" fill="url(#b)"/><path d="m27.121094 56.066406h-5.289063v2.648438h5.289063zm0 0" fill="url(#c)"/><path d="m27.121094 56.066406h-5.289063v-2.644531h5.289063zm0 0" fill="url(#d)"/><path d="m36.382812 56.066406h5.292969v2.648438h-5.292969zm0 0" fill="url(#e)"/><path d="m27.121094 55.40625h9.261718v3.308594h-9.261718zm0 0" fill="url(#f)"/><path d="m13.230469 9.761719c3.652343 0 6.613281 2.960937 6.613281 6.613281 0 3.65625-2.960938 6.617188-6.613281 6.617188-3.652344 0-6.617188-2.960938-6.617188-6.617188 0-3.652344 2.964844-6.613281 6.617188-6.613281zm0 0" fill="url(#g)"/><path d="m15.144531 12.484375c-.65625 0-1.199219.179687-1.554687.652344-2.015625 2.6875-3.316406.296875-5.324219 1.035156-.527344.101563-.929687.058594-1.246094-.085937-.261719.714843-.40625 1.484374-.40625 2.289062 0 .105469.003907.207031.007813.3125.46875.320312.882812.636719 1.09375.792969 2.207031 1.101562 3.234375.089843 5.515625-1.105469 1.542969-.671875 4.191406-.539062 6.589843-.578125-.066406-.757813-.257812-1.476563-.554687-2.136719-.058594-.066406-.121094-.132812-.1875-.199218-1.417969-.476563-2.835937-.976563-3.933594-.976563zm0 0" fill="#fff" fill-opacity=".313725"/><path d="m13.230469 9.574219c-3.765625 0-6.800781 3.035156-6.800781 6.800781s3.035156 6.804688 6.800781 6.804688 6.800781-3.039063 6.800781-6.804688-3.035156-6.800781-6.800781-6.800781zm0 .375c3.5625 0 6.425781 2.863281 6.425781 6.425781 0 3.566406-2.863281 6.429688-6.425781 6.429688s-6.425781-2.863282-6.425781-6.429688c0-3.5625 2.863281-6.425781 6.425781-6.425781zm0 0" fill="#212121"/><path d="m31.753906 5.792969c13.882813 0 25.136719 11.253906 25.136719 25.136719 0 13.882812-11.253906 25.136718-25.136719 25.136718-13.882812 0-25.140625-11.253906-25.140625-25.136718 0-13.882813 11.257813-25.136719 25.140625-25.136719zm0 0" fill="url(#h)"/><g fill="#fff"><path d="m17.730469 10.039062c-3.148438 2.113282-5.792969 4.921876-7.707031 8.210938 1.628906.882812 3.207031 1.554688 4.53125.773438 1.683593-.917969 6.550781 2.960937 7.9375 3.96875 5.292968 2.644531 7.761718.214843 13.230468-2.648438 4.203125-1.832031 11.832032-1.171875 18.117188-1.460938-1.105469-2.03125-2.484375-3.890624-4.085938-5.53125-5.445312-1.835937-10.894531-3.808593-13.167968-.78125-4.832032 6.453126-7.960938.71875-12.769532 2.484376-4.195312.808593-5.074218-2.191407-6.085937-5.015626zm0 0" fill-opacity=".313725"/><path d="m54.691406 41.265625c-2.648437 1.222656-4.578125 1.761719-7.0625 1.570313-2.871094.730468-.269531 3.984374-2.644531 3.96875-2.933594 0-13.230469 6.617187-19.847656 2.648437-2.78125-.5625-7.710938-1.371094-11.785157-1.363281 4.582032 4.914062 11.121094 7.976562 18.402344 7.976562 3.261719 0 6.378906-.613281 9.234375-1.738281 6.15625-3.476563 11.578125-8.339844 13.703125-13.0625zm0 0" fill-opacity=".313725"/><path d="m13.277344 22.835938c-.414063 0-.867188.050781-1.371094.15625-.878906.511718-.328125 1.980468-1.320312 2.644531-.417969.691406-1.792969-.433594-3.042969-1.523438-.605469 2.167969-.929688 4.453125-.929688 6.816407 0 .960937.054688 1.910156.160157 2.839843 2.679687 1.042969 5.578124 3.75 7.78125 2.453125 1.683593-.917968 6.550781 2.960938 7.9375 3.96875 5.292968 2.644532 7.761718.214844 13.230468-2.644531 4.792969-2.097656 14.050782-.941406 20.679688-1.652344.320312-1.601562.488281-3.261719.488281-4.964843 0-1.855469-.199219-3.664063-.578125-5.402344-6.527344-1.164063-10.957031 1.390625-13.976562 5.402344-4.832032 6.453124-13.710938-.441407-18.519532 1.324218-7.550781 1.457032-4.355468-9.433594-10.539062-9.417968zm0 0" fill-opacity=".313725"/><path d="m31.753906 5.792969c-13.925781 0-25.140625 11.210937-25.140625 25.136719 0 .164062.003907.324218.007813.488281.257812-13.703125 11.367187-24.652344 25.132812-24.652344 13.761719 0 24.875 10.949219 25.132813 24.652344.003906-.164063.003906-.324219.003906-.488281 0-13.925782-11.210937-25.136719-25.136719-25.136719zm0 0" fill-opacity=".392157"/></g><path d="m31.753906 56.066406c-13.925781 0-25.140625-11.210937-25.140625-25.136718 0-.160157.003907-.324219.007813-.484376.257812 13.699219 11.367187 24.648438 25.132812 24.648438 13.761719 0 24.875-10.949219 25.132813-24.648438.003906.160157.003906.324219.003906.484376 0 13.925781-11.210937 25.136718-25.136719 25.136718zm0 0" fill-opacity=".235294"/><path d="m31.753906 5.605469c-14.027344 0-25.328125 11.296875-25.328125 25.324219 0 14.027343 11.300781 25.324218 25.328125 25.324218s25.324219-11.296875 25.324219-25.324218c0-14.027344-11.296875-25.324219-25.324219-25.324219zm0 .375c13.824219 0 24.949219 11.125 24.949219 24.949219 0 13.824218-11.125 24.949218-24.949219 24.949218-13.828125 0-24.953125-11.125-24.953125-24.949218 0-13.824219 11.125-24.949219 24.953125-24.949219zm0 0" fill="#212121"/><path d="m42.335938 34.898438c3.65625 0 6.617187 2.960937 6.617187 6.617187 0 3.652344-2.960937 6.613281-6.617187 6.613281-3.652344 0-6.613282-2.960937-6.613282-6.613281 0-3.65625 2.960938-6.617187 6.613282-6.617187zm0 0" fill="url(#i)"/><path d="m44.253906 37.621094c-.660156 0-1.199218.179687-1.554687.652344-2.015625 2.691406-3.320313.300781-5.324219 1.035156-.53125.101562-.933594.058594-1.25-.085938-.261719.714844-.402344 1.484375-.402344 2.292969 0 .101563.003906.207031.007813.308594.46875.320312.878906.636719 1.09375.792969 2.203125 1.101562 3.234375.089843 5.511719-1.101563 1.542968-.675781 4.191406-.542969 6.589843-.582031-.0625-.757813-.253906-1.476563-.550781-2.136719-.0625-.066406-.125-.132813-.1875-.199219-1.417969-.476562-2.839844-.976562-3.933594-.976562zm0 0" fill="#fff" fill-opacity=".313725"/><path d="m42.335938 34.898438c-3.664063 0-6.613282 2.949218-6.613282 6.617187 0 .082031 0 .164063.003906.246094.128907-3.546875 3.027344-6.367188 6.609376-6.367188 3.582031 0 6.480468 2.820313 6.613281 6.367188 0-.082031.003906-.164063.003906-.246094 0-3.667969-2.949219-6.617187-6.617187-6.617187zm0 0" fill="#fff" fill-opacity=".392157"/><path d="m42.335938 34.710938c-3.765626 0-6.800782 3.039062-6.800782 6.804687s3.035156 6.800781 6.800782 6.800781c3.765624 0 6.804687-3.035156 6.804687-6.800781s-3.039063-6.804687-6.804687-6.804687zm0 .375c3.566406 0 6.429687 2.863281 6.429687 6.429687 0 3.5625-2.863281 6.425781-6.429687 6.425781-3.5625 0-6.425782-2.863281-6.425782-6.425781 0-3.566406 2.863282-6.429687 6.425782-6.429687zm0 0" fill="#212121"/><path d="m35.742188 42.011719c-.015626.164062-.019532.328125-.019532.496093 0 3.664063 2.949219 6.613282 6.613282 6.613282 3.667968 0 6.617187-2.949219 6.617187-6.613282 0-.167968-.007813-.332031-.019531-.496093-.25 3.429687-3.097656 6.117187-6.597656 6.117187-3.496094 0-6.34375-2.6875-6.59375-6.117187zm0 0" fill-opacity=".235294"/></svg>

<?xml version="1.0" encoding="UTF-8"?>
<svg xmlns="http://www.w3.org/2000/svg" xmlns:xlink="http://www.w3.org/1999/xlink" width="64pt" height="64pt" viewBox="0 0 64 64" version="1.1">
<defs>
<radialGradient id="radial0" gradientUnits="userSpaceOnUse" cx="450.90894" cy="189.57936" fx="450.90894" fy="189.57936" r="21.166656" gradientTransform="matrix(0.000000348341,-0.156265,-0.281277,-0.000000203077,89.046304,127.190664)">
<stop offset="0" style="stop-color:rgb(0%,0%,0%);stop-opacity:0.313725;"/>
<stop offset="0.222222" style="stop-color:rgb(0%,0%,0%);stop-opacity:0.27451;"/>
<stop offset="1" style="stop-color:rgb(0%,0%,0%);stop-opacity:0;"/>
</radialGradient>
<radialGradient id="radial1" gradientUnits="userSpaceOnUse" cx="450.90894" cy="189.57936" fx="450.90894" fy="189.57936" r="21.166656" gradientTransform="matrix(-0.000000348341,0.156265,0.281277,0.000000203077,-25.540241,-15.054962)">
<stop offset="0" style="stop-color:rgb(0%,0%,0%);stop-opacity:0.313725;"/>
<stop offset="0.222222" style="stop-color:rgb(0%,0%,0%);stop-opacity:0.27451;"/>
<stop offset="1" style="stop-color:rgb(0%,0%,0%);stop-opacity:0;"/>
</radialGradient>
<radialGradient id="radial2" gradientUnits="userSpaceOnUse" cx="450.90894" cy="189.57936" fx="450.90894" fy="189.57936" r="21.166656" gradientTransform="matrix(-0.000000348341,-0.156265,0.281277,-0.000000203077,-25.540241,127.190664)">
<stop offset="0" style="stop-color:rgb(0%,0%,0%);stop-opacity:0.313725;"/>
<stop offset="0.222222" style="stop-color:rgb(0%,0%,0%);stop-opacity:0.27451;"/>
<stop offset="1" style="stop-color:rgb(0%,0%,0%);stop-opacity:0;"/>
</radialGradient>
<radialGradient id="radial3" gradientUnits="userSpaceOnUse" cx="450.90894" cy="189.57936" fx="450.90894" fy="189.57936" r="21.166656" gradientTransform="matrix(0.000000348341,0.156265,-0.281277,0.000000203077,89.0463,-15.054964)">
<stop offset="0" style="stop-color:rgb(0%,0%,0%);stop-opacity:0.313725;"/>
<stop offset="0.222222" style="stop-color:rgb(0%,0%,0%);stop-opacity:0.27451;"/>
<stop offset="1" style="stop-color:rgb(0%,0%,0%);stop-opacity:0;"/>
</radialGradient>
<linearGradient id="linear0" gradientUnits="userSpaceOnUse" x1="255.32306" y1="233.5" x2="255.32304" y2="254.66666" gradientTransform="matrix(0.0267201,0,0,0.125012,24.930772,26.877567)">
<stop offset="0" style="stop-color:rgb(0%,0%,0%);stop-opacity:0.27451;"/>
<stop offset="1" style="stop-color:rgb(0%,0%,0%);stop-opacity:0;"/>
</linearGradient>
<linearGradient id="linear1" gradientUnits="userSpaceOnUse" x1="317.5" y1="148.83333" x2="317.5" y2="43" gradientTransform="matrix(0.125012,0,0,0.125012,-26.460859,4.385866)">
<stop offset="0" style="stop-color:rgb(100%,43.921569%,26.27451%);stop-opacity:1;"/>
<stop offset="1" style="stop-color:rgb(100%,67.058824%,56.862745%);stop-opacity:1;"/>
</linearGradient>
<linearGradient id="linear2" gradientUnits="userSpaceOnUse" x1="254" y1="233.5" x2="254" y2="-168.66667" gradientTransform="matrix(0.125012,0,0,0.125012,-0.00000118649,26.877566)">
<stop offset="0" style="stop-color:rgb(55.294118%,43.137255%,38.823529%);stop-opacity:1;"/>
<stop offset="1" style="stop-color:rgb(63.137255%,53.333333%,49.803922%);stop-opacity:1;"/>
</linearGradient>
<linearGradient id="linear3" gradientUnits="userSpaceOnUse" x1="317.5" y1="148.83333" x2="317.5" y2="43" gradientTransform="matrix(0.125012,0,0,0.125012,2.646087,29.523683)">
<stop offset="0" style="stop-color:rgb(47.058824%,56.470588%,61.176471%);stop-opacity:1;"/>
<stop offset="1" style="stop-color:rgb(69.019608%,74.509804%,77.254902%);stop-opacity:1;"/>
</linearGradient>
</defs>
<g id="surface1">
<path style=" stroke:none;fill-rule:nonzero;fill:url(#radial0);" d="M 36.382812 56.066406 L 41.675781 56.066406 L 41.675781 53.421875 L 36.382812 53.421875 Z M 36.382812 56.066406 "/>
<path style=" stroke:none;fill-rule:nonzero;fill:url(#radial1);" d="M 27.121094 56.066406 L 21.832031 56.066406 L 21.832031 58.714844 L 27.121094 58.714844 Z M 27.121094 56.066406 "/>
<path style=" stroke:none;fill-rule:nonzero;fill:url(#radial2);" d="M 27.121094 56.066406 L 21.832031 56.066406 L 21.832031 53.421875 L 27.121094 53.421875 Z M 27.121094 56.066406 "/>
<path style=" stroke:none;fill-rule:nonzero;fill:url(#radial3);" d="M 36.382812 56.066406 L 41.675781 56.066406 L 41.675781 58.714844 L 36.382812 58.714844 Z M 36.382812 56.066406 "/>
<path style=" stroke:none;fill-rule:nonzero;fill:url(#linear0);" d="M 27.121094 55.40625 L 36.382812 55.40625 L 36.382812 58.714844 L 27.121094 58.714844 Z M 27.121094 55.40625 "/>
<path style=" stroke:none;fill-rule:nonzero;fill:url(#linear1);" d="M 13.230469 9.761719 C 16.882812 9.761719 19.84375 12.722656 19.84375 16.375 C 19.84375 20.03125 16.882812 22.992188 13.230469 22.992188 C 9.578125 22.992188 6.613281 20.03125 6.613281 16.375 C 6.613281 12.722656 9.578125 9.761719 13.230469 9.761719 Z M 13.230469 9.761719 "/>
<path style=" stroke:none;fill-rule:nonzero;fill:rgb(100%,100%,100%);fill-opacity:0.313725;" d="M 15.144531 12.484375 C 14.488281 12.484375 13.945312 12.664062 13.589844 13.136719 C 11.574219 15.824219 10.273438 13.433594 8.265625 14.171875 C 7.738281 14.273438 7.335938 14.230469 7.019531 14.085938 C 6.757812 14.800781 6.613281 15.570312 6.613281 16.375 C 6.613281 16.480469 6.617188 16.582031 6.621094 16.6875 C 7.089844 17.007812 7.503906 17.324219 7.714844 17.480469 C 9.921875 18.582031 10.949219 17.570312 13.230469 16.375 C 14.773438 15.703125 17.421875 15.835938 19.820312 15.796875 C 19.753906 15.039062 19.5625 14.320312 19.265625 13.660156 C 19.207031 13.59375 19.144531 13.527344 19.078125 13.460938 C 17.660156 12.984375 16.242188 12.484375 15.144531 12.484375 Z M 15.144531 12.484375 "/>
<path style=" stroke:none;fill-rule:nonzero;fill:rgb(12.941176%,12.941176%,12.941176%);fill-opacity:1;" d="M 13.230469 9.574219 C 9.464844 9.574219 6.429688 12.609375 6.429688 16.375 C 6.429688 20.140625 9.464844 23.179688 13.230469 23.179688 C 16.996094 23.179688 20.03125 20.140625 20.03125 16.375 C 20.03125 12.609375 16.996094 9.574219 13.230469 9.574219 Z M 13.230469 9.949219 C 16.792969 9.949219 19.65625 12.8125 19.65625 16.375 C 19.65625 19.941406 16.792969 22.804688 13.230469 22.804688 C 9.667969 22.804688 6.804688 19.941406 6.804688 16.375 C 6.804688 12.8125 9.667969 9.949219 13.230469 9.949219 Z M 13.230469 9.949219 "/>
<path style=" stroke:none;fill-rule:nonzero;fill:url(#linear2);" d="M 31.753906 5.792969 C 45.636719 5.792969 56.890625 17.046875 56.890625 30.929688 C 56.890625 44.8125 45.636719 56.066406 31.753906 56.066406 C 17.871094 56.066406 6.613281 44.8125 6.613281 30.929688 C 6.613281 17.046875 17.871094 5.792969 31.753906 5.792969 Z M 31.753906 5.792969 "/>
<path style=" stroke:none;fill-rule:nonzero;fill:rgb(100%,100%,100%);fill-opacity:0.313725;" d="M 17.730469 10.039062 C 14.582031 12.152344 11.9375 14.960938 10.023438 18.25 C 11.652344 19.132812 13.230469 19.804688 14.554688 19.023438 C 16.238281 18.105469 21.105469 21.984375 22.492188 22.992188 C 27.785156 25.636719 30.253906 23.207031 35.722656 20.34375 C 39.925781 18.511719 47.554688 19.171875 53.839844 18.882812 C 52.734375 16.851562 51.355469 14.992188 49.753906 13.351562 C 44.308594 11.515625 38.859375 9.542969 36.585938 12.570312 C 31.753906 19.023438 28.625 13.289062 23.816406 15.054688 C 19.621094 15.863281 18.742188 12.863281 17.730469 10.039062 Z M 17.730469 10.039062 "/>
<path style=" stroke:none;fill-rule:nonzero;fill:rgb(100%,100%,100%);fill-opacity:0.313725;" d="M 54.691406 41.265625 C 52.042969 42.488281 50.113281 43.027344 47.628906 42.835938 C 44.757812 43.566406 47.359375 46.820312 44.984375 46.804688 C 42.050781 46.804688 31.753906 53.421875 25.136719 49.453125 C 22.355469 48.890625 17.425781 48.082031 13.351562 48.089844 C 17.933594 53.003906 24.472656 56.066406 31.753906 56.066406 C 35.015625 56.066406 38.132812 55.453125 40.988281 54.328125 C 47.144531 50.851562 52.566406 45.988281 54.691406 41.265625 Z M 54.691406 41.265625 "/>
<path style=" stroke:none;fill-rule:nonzero;fill:rgb(100%,100%,100%);fill-opacity:0.313725;" d="M 13.277344 22.835938 C 12.863281 22.835938 12.410156 22.886719 11.90625 22.992188 C 11.027344 23.503906 11.578125 24.972656 10.585938 25.636719 C 10.167969 26.328125 8.792969 25.203125 7.542969 24.113281 C 6.9375 26.28125 6.613281 28.566406 6.613281 30.929688 C 6.613281 31.890625 6.667969 32.839844 6.773438 33.769531 C 9.453125 34.8125 12.351562 37.519531 14.554688 36.222656 C 16.238281 35.304688 21.105469 39.183594 22.492188 40.191406 C 27.785156 42.835938 30.253906 40.40625 35.722656 37.546875 C 40.515625 35.449219 49.773438 36.605469 56.402344 35.894531 C 56.722656 34.292969 56.890625 32.632812 56.890625 30.929688 C 56.890625 29.074219 56.691406 27.265625 56.3125 25.527344 C 49.785156 24.363281 45.355469 26.917969 42.335938 30.929688 C 37.503906 37.382812 28.625 30.488281 23.816406 32.253906 C 16.265625 33.710938 19.460938 22.820312 13.277344 22.835938 Z M 13.277344 22.835938 "/>
<path style=" stroke:none;fill-rule:nonzero;fill:rgb(100%,100%,100%);fill-opacity:0.392157;" d="M 31.753906 5.792969 C 17.828125 5.792969 6.613281 17.003906 6.613281 30.929688 C 6.613281 31.09375 6.617188 31.253906 6.621094 31.417969 C 6.878906 17.714844 17.988281 6.765625 31.753906 6.765625 C 45.515625 6.765625 56.628906 17.714844 56.886719 31.417969 C 56.890625 31.253906 56.890625 31.09375 56.890625 30.929688 C 56.890625 17.003906 45.679688 5.792969 31.753906 5.792969 Z M 31.753906 5.792969 "/>
<path style=" stroke:none;fill-rule:nonzero;fill:rgb(0%,0%,0%);fill-opacity:0.235294;" d="M 31.753906 56.066406 C 17.828125 56.066406 6.613281 44.855469 6.613281 30.929688 C 6.613281 30.769531 6.617188 30.605469 6.621094 30.445312 C 6.878906 44.144531 17.988281 55.09375 31.753906 55.09375 C 45.515625 55.09375 56.628906 44.144531 56.886719 30.445312 C 56.890625 30.605469 56.890625 30.769531 56.890625 30.929688 C 56.890625 44.855469 45.679688 56.066406 31.753906 56.066406 Z M 31.753906 56.066406 "/>
<path style=" stroke:none;fill-rule:nonzero;fill:rgb(12.941176%,12.941176%,12.941176%);fill-opacity:1;" d="M 31.753906 5.605469 C 17.726562 5.605469 6.425781 16.902344 6.425781 30.929688 C 6.425781 44.957031 17.726562 56.253906 31.753906 56.253906 C 45.78125 56.253906 57.078125 44.957031 57.078125 30.929688 C 57.078125 16.902344 45.78125 5.605469 31.753906 5.605469 Z M 31.753906 5.980469 C 45.578125 5.980469 56.703125 17.105469 56.703125 30.929688 C 56.703125 44.753906 45.578125 55.878906 31.753906 55.878906 C 17.925781 55.878906 6.800781 44.753906 6.800781 30.929688 C 6.800781 17.105469 17.925781 5.980469 31.753906 5.980469 Z M 31.753906 5.980469 "/>
<path style=" stroke:none;fill-rule:nonzero;fill:url(#linear3);" d="M 42.335938 34.898438 C 45.992188 34.898438 48.953125 37.859375 48.953125 41.515625 C 48.953125 45.167969 45.992188 48.128906 42.335938 48.128906 C 38.683594 48.128906 35.722656 45.167969 35.722656 41.515625 C 35.722656 37.859375 38.683594 34.898438 42.335938 34.898438 Z M 42.335938 34.898438 "/>
<path style=" stroke:none;fill-rule:nonzero;fill:rgb(100%,100%,100%);fill-opacity:0.313725;" d="M 44.253906 37.621094 C 43.59375 37.621094 43.054688 37.800781 42.699219 38.273438 C 40.683594 40.964844 39.378906 38.574219 37.375 39.308594 C 36.84375 39.410156 36.441406 39.367188 36.125 39.222656 C 35.863281 39.9375 35.722656 40.707031 35.722656 41.515625 C 35.722656 41.617188 35.726562 41.722656 35.730469 41.824219 C 36.199219 42.144531 36.609375 42.460938 36.824219 42.617188 C 39.027344 43.71875 40.058594 42.707031 42.335938 41.515625 C 43.878906 40.839844 46.527344 40.972656 48.925781 40.933594 C 48.863281 40.175781 48.671875 39.457031 48.375 38.796875 C 48.3125 38.730469 48.25 38.664062 48.1875 38.597656 C 46.769531 38.121094 45.347656 37.621094 44.253906 37.621094 Z M 44.253906 37.621094 "/>
<path style=" stroke:none;fill-rule:nonzero;fill:rgb(100%,100%,100%);fill-opacity:0.392157;" d="M 42.335938 34.898438 C 38.671875 34.898438 35.722656 37.847656 35.722656 41.515625 C 35.722656 41.597656 35.722656 41.679688 35.726562 41.761719 C 35.855469 38.214844 38.753906 35.394531 42.335938 35.394531 C 45.917969 35.394531 48.816406 38.214844 48.949219 41.761719 C 48.949219 41.679688 48.953125 41.597656 48.953125 41.515625 C 48.953125 37.847656 46.003906 34.898438 42.335938 34.898438 Z M 42.335938 34.898438 "/>
<path style=" stroke:none;fill-rule:nonzero;fill:rgb(12.941176%,12.941176%,12.941176%);fill-opacity:1;" d="M 42.335938 34.710938 C 38.570312 34.710938 35.535156 37.75 35.535156 41.515625 C 35.535156 45.28125 38.570312 48.316406 42.335938 48.316406 C 46.101562 48.316406 49.140625 45.28125 49.140625 41.515625 C 49.140625 37.75 46.101562 34.710938 42.335938 34.710938 Z M 42.335938 35.085938 C 45.902344 35.085938 48.765625 37.949219 48.765625 41.515625 C 48.765625 45.078125 45.902344 47.941406 42.335938 47.941406 C 38.773438 47.941406 35.910156 45.078125 35.910156 41.515625 C 35.910156 37.949219 38.773438 35.085938 42.335938 35.085938 Z M 42.335938 35.085938 "/>
<path style=" stroke:none;fill-rule:nonzero;fill:rgb(0%,0%,0%);fill-opacity:0.235294;" d="M 35.742188 42.011719 C 35.726562 42.175781 35.722656 42.339844 35.722656 42.507812 C 35.722656 46.171875 38.671875 49.121094 42.335938 49.121094 C 46.003906 49.121094 48.953125 46.171875 48.953125 42.507812 C 48.953125 42.339844 48.945312 42.175781 48.933594 42.011719 C 48.683594 45.441406 45.835938 48.128906 42.335938 48.128906 C 38.839844 48.128906 35.992188 45.441406 35.742188 42.011719 Z M 35.742188 42.011719 "/>
</g>
</svg>
